!!!COM: Palestrina, Giovanni Perluigi da
!!!OPR: Missa O sacrum convivium
!!!OMD: Gloria
!!!OTL: Qui tollis
**kern	**kern	**kern	**kern	**kern
*Ibass	*Itenor	*Itenor	*Icalto	*Icant
!Bassus	!Tenor 2	!Tenor 1	!Altus	!Cantus
*clefF4	*clefGv2	*clefGv2	*clefG2	*clefG2
*k[b-]	*k[b-]	*k[b-]	*k[b-]	*k[b-]
*F:ion	*F:ion	*F:ion	*F:ion	*F:ion
*M4/2	*M4/2	*M4/2	*M4/2	*M4/2
=63	=63	=63	=63	=63
0r	0r	0r	0r	1.cc
.	.	.	.	2dd
=64	=64	=64	=64	=64
0r	0r	1.f	0r	2cc
.	.	.	.	2a
.	.	.	.	2cc
.	.	2g	.	2b-
=65	=65	=65	=65	=65
0r	1.f	2f	0r	2.a
.	.	2d	.	.
.	.	.	.	4g
.	.	2f	.	4a
.	.	.	.	4b-
.	2g	2e	.	2cc
=66	=66	=66	=66	=66
0r	2f	2.d	0r	4b-
.	.	.	.	4a
.	2d	.	.	1dd
.	.	4c	.	.
.	2f	2B-	.	.
.	2e	2c	.	[2cc
=67	=67	=67	=67	=67
0r	1d	1G	1.g	2cc]
.	.	.	.	2b
.	2e	1c	.	[1cc
.	4c	.	2a	.
.	4d	.	.	.
=68	=68	=68	=68	=68
1.c	4e	0r	2g	1cc]
.	4f	.	.	.
.	2g	.	2e	.
.	2e	.	2g	1r
2d	[2a	.	2f	.
=69	=69	=69	=69	=69
2c	4a]	0r	4e	1.cc
.	4g	.	8f	.
.	.	.	8g	.
2A	2f	.	2.a	.
2c	2e	.	.	.
.	.	.	4g	.
2B-	2d	.	[2g	2dd
=70	=70	=70	=70	=70
2c	2e	1r	2g]	2cc
2d	1f	.	2f	2a
1c	.	2r	1g	2.cc
.	2e	[2c	.	.
.	.	.	.	4b-
=71	=71	=71	=71	=71
1F	1f	2c]	1r	1a
.	.	2d	.	.
[1F	2r	2c	2r	1a
.	2c	2A	[2a	.
=72	=72	=72	=72	=72
2F]	2A	2c	2a]	1r
2G	2B-	2B-	2g	.
2F	2c	2A	4a	[1ff
.	.	.	4g	.
2D	4F	[2d	4f	.
.	4G	.	4e	.
=73	=73	=73	=73	=73
2F	2A	2d]	2d	2ff]
2E	2G	1c	2e	2gg
1D	2A	.	1f	2ff
.	4G	2B	.	2dd
.	4F	.	.	.
=74	=74	=74	=74	=74
1C	2G	1.c	2.e	2.ee
.	1g	.	.	.
.	.	.	4d	4ff
1r	.	.	1c	4gg
.	.	.	.	4ee
.	2a	2F	.	2ff
=75	=75	=75	=75	=75
0r	2g	1c	2r	2.ee
.	2e	.	2g	.
.	.	.	.	8dd
.	.	.	.	8cc
.	1f	2F	1a	4dd
.	.	.	.	4cc
.	.	2F	.	[2cc
=76	=76	=76	=76	=76
0r	2d	1G	1g	2cc]
.	1g	.	.	2b
.	.	1c	2e	[1cc
.	2a	.	4c	.
.	.	.	4d	.
=77	=77	=77	=77	=77
1r	2g	2r	4e	1cc]
.	.	.	4f	.
.	2e	1c	2g	.
[1F	[1f	.	2.a	1r
.	.	2d	.	.
.	.	.	4g	.
=78	=78	=78	=78	=78
2F]	2f]	2c	2a	1r
2G	2d	2B-	2b-	.
2F	2.f	2c	1a	2r
2D	.	[2d	.	[2ff
.	4e	.	.	.
=79	=79	=79	=79	=79
2F	2c	4d]	2r	2ff]
.	.	4c	.	.
2E	2e	1c	2g	2gg
2F	1d	.	2a	2ff
2G	.	2B	2g	2dd
=80	=80	=80	=80	=80
1F	2r	2c	2a	1ff
.	2a	2F	1cc	.
1r	4a	2A	.	2ee
.	4g	.	.	.
.	4f	2B-	2b-	[2dd
.	4e	.	.	.
=81	=81	=81	=81	=81
0r	2f	1F	1a	4dd]
.	.	.	.	4cc
.	2f	.	.	1cc
.	1d	1G	[1g	.
.	.	.	.	2b
=82	=82	=82	=82	=82
1r	1e	1.c	1g]	1cc
[1F	[1f	.	[1a	[1cc
.	.	2c	.	.
=83	=83	=83	=83	=83
2F]	2f]	1F	2a]	2cc]
2F	2f	.	2a	2cc
1BB-	[1f	2r	2b-	[1dd
.	.	2f	[2b-	.
=84	=84	=84	=84	=84
2r	1f]	2B-	2b-]	1dd]
1B-	.	1d	2f	.
.	1r	.	2g	1r
2F	.	2c	2a	.
=85	=85	=85	=85	=85
2G	1r	2B-	2b-	0r
2A	.	2c	4a	.
.	.	.	4g	.
[1B-	2r	2.d	2f	.
.	[2f	.	4d	.
.	.	4c	4e	.
=86	=86	=86	=86	=86
2B-]	2f]	4d	4f	0r
.	.	4e	4g	.
2A	2c	1f	2a	.
1G	2d	.	[1b-	.
.	2e	2e	.	.
=87	=87	=87	=87	=87
1F	1.f	2d	2b-]	2r
.	.	2c	4a	1cc
.	.	.	4g	.
2r	.	1c	2a	.
[2c	2e	.	2g	2g
=88	=88	=88	=88	=88
2c]	1d	2r	1r	2a
2B-	.	1f	.	2b-
2A	1c	.	2r	[1cc
2A	.	2c	2e	.
=89	=89	=89	=89	=89
1G	0r	2d	2g	2cc]
.	.	2e	2g	2b-
1F	.	[1f	2c	1a
.	.	.	[2d	.
=90	=90	=90	=90	=90
1G	1r	2f]	2d]	0g
.	.	2e	1c	.
1G	2r	1d	.	.
.	[2g	.	2B	.
=91	=91	=91	=91	=91
2r	2g]	1c	2c	0r
1c	2f	.	2A	.
.	2.g	2r	1G	.
2B	.	[2g	.	.
.	4f	.	.	.
=92	=92	=92	=92	=92
2c	2e	2g]	1c	1r
2A	2c	2f	.	.
2G	2d	2g	1r	2r
2F	2f	2a	.	[2cc
=93	=93	=93	=93	=93
1G	2e	2.g	1r	2cc]
.	2d	.	.	2b
.	.	4f	.	.
2.A	1c	2e	2r	2cc
.	.	4c	[2cc	2a
4B-	.	4d	.	.
=94	=94	=94	=94	=94
2c	0r	4e	2cc]	2g
.	.	4c	.	.
2d	.	1f	2b	2f
1c	.	.	1cc	1g
.	.	2e	.	.
=95	=95	=95	=95	=95
1F	1r	2.f	1a	1cc
.	.	8e	.	.
.	.	8d	.	.
1r	2r	2e	2g	1cc
.	[2f	2f	2f	.
=96	=96	=96	=96	=96
0r	2f]	1c	2g	2r
.	2e	.	2g	1cc
.	2f	1r	2a	.
.	2d	.	2f	2b
=97	=97	=97	=97	=97
0r	2c	2r	2g	2cc
.	1B-	1f	1b-	1dd
.	2c	2e	[2a	[2cc
=98	=98	=98	=98	=98
1r	1d	2f	2a]	2cc]
.	.	2d	4g	2b
.	.	.	4f	.
2r	1c	2e	2g	[1cc
[2F	.	2f	[2a	.
=99	=99	=99	=99	=99
2F]	2r	2r	2a]	1cc]
2E	2G	1c	2g	.
2F	2A	.	1f	1r
2D	2F	2B	.	.
=100	=100	=100	=100	=100
2C	2G	2c	2r	0r
2BB-	2B-	1d	1f	.
1C	2A	.	.	.
.	2G	[2c	2e	.
=101	=101	=101	=101	=101
1D	2F	2c]	2.f	1r
.	1f	2B-	.	.
.	.	.	4g	.
1C	.	2.c	2a	2r
.	2e	.	2g	[2cc
.	.	4B-	.	.
=102	=102	=102	=102	=102
0r	2f	2A	2a	2cc]
.	1g	2G	2d	2b-
.	.	2A	2r	2cc
.	[2f	2B-	2d	[2dd
=103	=103	=103	=103	=103
0r	2f]	1c	2g	2dd]
.	2e	.	2g	1cc
.	1d	1G	1g	.
.	.	.	.	2b
=104	=104	=104	=104	=104
2r	2c	1r	1e	1cc
2c	2e	.	.	.
2c	2e	2r	1r	1g
2B	2d	2g	.	.
=105	=105	=105	=105	=105
2c	2e	2g	2r	0r
2A	2c	2f#	2cc	.
1G	2d	2.g	2cc	.
.	2G	.	2b	.
.	.	4f	.	.
=106	=106	=106	=106	=106
0r	2A	2.e	2.cc	2r
.	2A	.	.	2cc
.	.	8d	4b-	.
.	.	8e	.	.
.	2F	2f	2a	2cc
.	2G	2d	[2g	2b
=107	=107	=107	=107	=107
1r	2.A	1c	4g]	2cc
.	.	.	4f	.
.	.	.	1f	2a
.	4B-	.	.	.
1C	1c	1r	.	[1g
.	.	.	4e	.
.	.	.	4d	.
=108	=108	=108	=108	=108
1c	2r	0r	2e	1g]
.	1e	.	2c	.
2c	.	.	1g	1r
2B	2d	.	.	.
=109	=109	=109	=109	=109
2c	2e	0r	2g	1r
2A	2c	.	2f	.
1G	2d	.	2.b-	1g
.	2e	.	.	.
.	.	.	4b-	.
=110	=110	=110	=110	=110
0r	1f	1F	1a	1cc
.	2e	2c	2g	2cc
.	2d	2d	2f	2b
=111	=111	=111	=111	=111
0r	1c	2e	2g	2cc
.	.	1f	2.cc	2a
.	1c	.	.	1g
.	.	.	8b-	.
.	.	.	8a	.
.	.	2e	2g	.
=112	=112	=112	=112	=112
0F	2r	1f	0a	0cc
.	2F	.	.	.
.	2.A	2.c	.	.
.	4B-	4d	.	.
=113	=113	=113	=113	=113
1E	2c	1e	1g	1cc
.	1c	.	.	.
1D	.	1f	1a	[1dd
.	4B	.	.	.
.	4A	.	.	.
=114	=114	=114	=114	=114
1G	1B	1g	1d	1dd]
1C	2c	1e	2.g	1ee
.	[2g	.	.	.
.	.	.	4f	.
=115	=115	=115	=115	=115
1c	2g]	2r	4e	1cc
.	.	.	4d	.
.	2e	2g	2c	.
2A	2f	2a	1r	2cc
2B-	[2d	2f	.	2dd
=116	=116	=116	=116	=116
2G	4d]	1g	1r	2b-
.	4c	.	.	.
2G	4d	.	.	2b-
.	4e	.	.	.
1F	4f	2c	1cc	2.a
.	4g	.	.	.
.	[2a	[2f	.	.
.	.	.	.	4b-
=117	=117	=117	=117	=117
0r	4a]	4f]	2a	2cc
.	4g	4e	.	.
.	1f	4d	2b-	2dd
.	.	4B-	.	.
.	.	2c	2g	2.cc
.	2e	2c	2g	.
.	.	.	.	4b-
=118	=118	=118	=118	=118
2r	1f	4d	1f	1a
.	.	4e	.	.
2F	.	4f	.	.
.	.	4d	.	.
4G	1r	2e	1r	2r
4A	.	.	.	.
4B-	.	2d	.	2b-
4G	.	.	.	.
=119	=119	=119	=119	=119
2A	0r	2c	2r	2cc
2B-	.	1f	2f	2dd
1G	.	.	4g	1b-
.	.	.	4a	.
.	.	2e	4b-	.
.	.	.	4g	.
=120	=120	=120	=120	=120
2.F	0r	2d	2a	2r
.	.	1c	2a	2cc
4E	.	.	.	.
1D	.	.	1f	4dd
.	.	.	.	4ee
.	.	2B	.	4ff
.	.	.	.	4dd
=121	=121	=121	=121	=121
1C	0r	2c	2r	2ee
.	.	2e	2g	2cc
1r	.	4f	4a	2cc
.	.	4g	4b-	.
.	.	4a	4cc	[2ff
.	.	4f	4a	.
=122	=122	=122	=122	=122
0r	2r	2g	2b-	2ff]
.	2c	2g	2cc	2ee
.	4d	1f	2a	1dd
.	4e	.	.	.
.	4f	.	2a	.
.	4d	.	.	.
=123	=123	=123	=123	=123
0r	2e	0r	2g	1cc
.	2f	.	2.a	.
.	1d	.	.	1f
.	.	.	4g	.
.	.	.	[2f	.
=124	=124	=124	=124	=124
2r	2.c	1r	4f]	1g
.	.	.	8e	.
.	.	.	8d	.
2C	.	.	2e	.
.	4B-	.	.	.
4D	1A	2r	1f	1f
4E	.	.	.	.
4F	.	2F	.	.
4D	.	.	.	.
=125	=125	=125	=125	=125
2E	1G	4G	0r	0r
.	.	4A	.	.
2G	.	4B-	.	.
.	.	4G	.	.
2F	1c	2A	.	.
2E	.	2c	.	.
=126	=126	=126	=126	=126
1D	4d	2B-	1f	0r
.	4e	.	.	.
.	4f	2A	.	.
.	4d	.	.	.
1r	2e	1G	4g	.
.	.	.	4a	.
.	2g	.	4b-	.
.	.	.	4g	.
=127	=127	=127	=127	=127
0r	2f	2d	2a	2r
.	2e	2A	2cc	2cc
.	1d	1r	2b-	4dd
.	.	.	.	4ee
.	.	.	2a	4ff
.	.	.	.	4dd
=128	=128	=128	=128	=128
0r	2r	0r	2.g	2ee
.	2c	.	.	2gg
.	.	.	4a	.
.	2d	.	2b-	2ff
.	2e	.	[2cc	2ee
=129	=129	=129	=129	=129
1r	2f	2r	2cc]	1dd
.	2g	2G	2b-	.
2r	1c	4A	2a	1cc
.	.	4B-	.	.
2C	.	4c	2g	.
.	.	4A	.	.
=130	=130	=130	=130	=130
4D	0r	2B-	2r	2f
4E	.	.	.	.
4F	.	2A	2f	2a
4D	.	.	.	.
2E	.	2c	4g	1g
.	.	.	4a	.
2G	.	2B-	4b-	.
.	.	.	4g	.
=131	=131	=131	=131	=131
2F	2r	0c	4a	0r
.	.	.	4b-	.
2E	2G	.	2.cc	.
1F	4A	.	.	.
.	4B-	.	4b-	.
.	4c	.	2a	.
.	4A	.	.	.
=132	=132	=132	=132	=132
1BB-	1B-	1d	2g	0r
.	.	.	2f	.
2C	2G	2c	2e	.
2D	2F	2B-	[2f	.
=133	=133	=133	=133	=133
1C	1G	0c	2f]	2r
.	.	.	2e	2g
2F	[1F	.	[1f	4a
.	.	.	.	4b-
2F	.	.	.	4cc
.	.	.	.	4a
=134	=134	=134	=134	=134
1.BB-	0F_	2.d	0f_	2b-
.	.	.	.	1dd
.	.	4c	.	.
.	.	2B-	.	.
2AA	.	2c	.	2cc
=135	=135	=135	=135	=135
1BB-	0F_	1d	0f_	1b-
[1F	.	[1c	.	[1a
=136	=136	=136	=136	=136
1F]	1F]	1c]	1f]	1a]
==	==	==	==	==
*-	*-	*-	*-	*-
!!!CDT: 1525/^1526/-1594/2/2
!!!OCY: Italia
!!!AGN: Mass (Parody)
!!!AST: renaissance, vocal
!!!ASW: Motet (Morales)
!!!PWK: Masses, Book 8
!!!RNB: Cadence finals: C
!!!YOR: Le Opere Complete, v. 24, p. 227
!!!YOO: Rome, Italy: Fratelli Scalera
!!!END: 1992//
!!!EED: John Miller
!!!YEC: Copyright 2000, John Miller
!!!YEN: United States of America
!!!YEM: Rights to all derivative electronic formats reserved.
!!!YEM: Refer to licensing agreement for further details.
!!!YEM: This file must be accompanied by the licensing agreement.
!!!YEM: A copy of the licensing agreement may be found at http://www.music-cog.ohio-state.edu/HumdrumDatabases/Palestrina/license.txt
!!!EMD: converted to Humdrum by Bret Aarden
